; G-Code generated by Simplify3D(R) Version 4.0.0
; Jul 30, 2018 at 8:46:02 PM
; Settings Summary
;   processName,Process1
;   applyToModels,ModuleLid
;   profileName,MK3 PETG (modified)
;   profileVersion,2018-03-12 00:13:31
;   baseProfile,Default
;   printMaterial,3dxtech PETG
;   printQuality,Fast 0.35
;   printExtruders,
;   extruderName,Primary Extruder
;   extruderToolheadNumber,0
;   extruderDiameter,0.4
;   extruderAutoWidth,0
;   extruderWidth,0.44
;   extrusionMultiplier,0.95
;   extruderUseRetract,1
;   extruderRetractionDistance,1
;   extruderExtraRestartDistance,0
;   extruderRetractionZLift,0.5
;   extruderRetractionSpeed,1800
;   extruderUseCoasting,1
;   extruderCoastingDistance,0.5
;   extruderUseWipe,1
;   extruderWipeDistance,2
;   primaryExtruder,0
;   layerHeight,0.35
;   topSolidLayers,4
;   bottomSolidLayers,3
;   perimeterOutlines,2
;   printPerimetersInsideOut,1
;   startPointOption,3
;   startPointOriginX,0
;   startPointOriginY,300
;   sequentialIslands,0
;   spiralVaseMode,0
;   firstLayerHeightPercentage,60
;   firstLayerWidthPercentage,90
;   firstLayerUnderspeed,0.7
;   useRaft,0
;   raftExtruder,0
;   raftTopLayers,3
;   raftBaseLayers,2
;   raftOffset,3
;   raftSeparationDistance,0.14
;   raftTopInfill,100
;   aboveRaftSpeedMultiplier,0.3
;   useSkirt,0
;   skirtExtruder,0
;   skirtLayers,1
;   skirtOutlines,1
;   skirtOffset,3
;   usePrimePillar,0
;   primePillarExtruder,999
;   primePillarWidth,12
;   primePillarLocation,7
;   primePillarSpeedMultiplier,1
;   useOozeShield,0
;   oozeShieldExtruder,999
;   oozeShieldOffset,2
;   oozeShieldOutlines,1
;   oozeShieldSidewallShape,1
;   oozeShieldSidewallAngle,30
;   oozeShieldSpeedMultiplier,1
;   infillExtruder,0
;   internalInfillPattern,Fast Honeycomb
;   externalInfillPattern,Rectilinear
;   infillPercentage,15
;   outlineOverlapPercentage,20
;   infillExtrusionWidthPercentage,105
;   minInfillLength,2
;   infillLayerInterval,1
;   internalInfillAngles,0
;   overlapInternalInfillAngles,0
;   externalInfillAngles,45,-45
;   generateSupport,0
;   supportExtruder,0
;   supportInfillPercentage,15
;   supportExtraInflation,0.25
;   supportBaseLayers,2
;   denseSupportExtruder,0
;   denseSupportLayers,1
;   denseSupportInfillPercentage,75
;   supportLayerInterval,1
;   supportHorizontalPartOffset,0.15
;   supportUpperSeparationLayers,1
;   supportLowerSeparationLayers,1
;   supportType,1
;   supportGridSpacing,3
;   maxOverhangAngle,45
;   supportAngles,0,90
;   temperatureName,Primary Extruder,Heated Bed
;   temperatureNumber,0,1
;   temperatureSetpointCount,2,1
;   temperatureSetpointLayers,1,2,1
;   temperatureSetpointTemperatures,245,235,75
;   temperatureStabilizeAtStartup,1,1
;   temperatureHeatedBed,0,1
;   temperatureRelayBetweenLayers,0,0
;   temperatureRelayBetweenLoops,0,0
;   fanLayers,1,3,6
;   fanSpeeds,0,30,60
;   blipFanToFullPower,0
;   adjustSpeedForCooling,1
;   minSpeedLayerTime,18
;   minCoolingSpeedSlowdown,20
;   increaseFanForCooling,0
;   minFanLayerTime,45
;   maxCoolingFanSpeed,100
;   increaseFanForBridging,1
;   bridgingFanSpeed,100
;   use5D,1
;   relativeEdistances,1
;   allowEaxisZeroing,1
;   independentExtruderAxes,0
;   includeM10123,0
;   stickySupport,1
;   applyToolheadOffsets,0
;   gcodeXoffset,0
;   gcodeYoffset,0
;   gcodeZoffset,0
;   overrideMachineDefinition,1
;   machineTypeOverride,0
;   strokeXoverride,250
;   strokeYoverride,210
;   strokeZoverride,210
;   originOffsetXoverride,0
;   originOffsetYoverride,0
;   originOffsetZoverride,0
;   homeXdirOverride,-1
;   homeYdirOverride,-1
;   homeZdirOverride,-1
;   flipXoverride,1
;   flipYoverride,-1
;   flipZoverride,1
;   toolheadOffsets,0,0|0,0|0,0|0,0|0,0|0,0
;   overrideFirmwareConfiguration,0
;   firmwareTypeOverride,RepRap (Marlin/Repetier/Sprinter)
;   GPXconfigOverride,r2
;   baudRateOverride,115200
;   overridePrinterModels,0
;   printerModelsOverride
;   startingGcode,M201 X1000 Y1000 ; slows acceleration,G28 W ; home all axes without mesh bed leveling,G1 F1000.0 ; set feed rate,G1 E-5 ; retract to avoid blobs on the bed,G80 ; run mesh bed leveling routine,G1 Y-3.0 ; prepare to prime,G1 E8 ; bring back the filament,G1 X120.0 E9.0 ; priming,G1 Y0.0 F1000.0 ; move to reverse intro line,G1 X10.0 E9.0 F1000.0 ; reverse intro line
;   layerChangeGcode,G1 [current_Z_position] F10000;
;   retractionGcode,
;   toolChangeGcode,
;   endingGcode,M106 S0 ; turn off cooling fan,M104 S0 ; turn off extruder,M140 S0 ; turn off bed,G1 F1000.0 ; set feed rate,G1 E-3 ; retract,G1 X0 Y200 F7200 ; home XY axis,G1 Z197 F900; move extruder up to keep P.I.N.D.A. prope away from heated bed at next start,M84 ; disable motors,
;   exportFileFormat,gcode
;   celebration,0
;   celebrationSong,Funky Town
;   postProcessing,{REPLACE "; outer perimeter\n" "; outer perimeter\nM204 S800\n"},{REPLACE "; inner perimeter\n" "; inner perimeter\nM204 S1000\n"},{REPLACE "; solid layer\n" "; solid layer\nM204 S1000\n"},{REPLACE "; infill\n" "; infill\nM204 S2000\n"}
;   defaultSpeed,3600
;   outlineUnderspeed,0.6
;   solidInfillUnderspeed,1
;   supportUnderspeed,0.8
;   rapidXYspeed,7200
;   rapidZspeed,720
;   minBridgingArea,50
;   bridgingExtraInflation,0.5
;   bridgingExtrusionMultiplier,0.95
;   bridgingSpeedMultiplier,0.4
;   useFixedBridgingAngle,1
;   fixedBridgingAngle,0
;   applyBridgingToPerimeters,0
;   filamentDiameters,1.75|1.75|1.75|1.75|1.75|1.75
;   filamentPricesPerKg,24|46|46|46|46|46
;   filamentDensities,1.25|1.25|1.25|1.25|1.25|1.25
;   useMinPrintHeight,0
;   minPrintHeight,0
;   useMaxPrintHeight,0
;   maxPrintHeight,0
;   useDiaphragm,0
;   diaphragmLayerInterval,20
;   robustSlicing,1
;   mergeAllIntoSolid,0
;   onlyRetractWhenCrossingOutline,0
;   retractBetweenLayers,1
;   useRetractionMinTravel,0
;   retractionMinTravel,1
;   retractWhileWiping,1
;   onlyWipeOutlines,1
;   avoidCrossingOutline,0
;   maxMovementDetourFactor,3
;   toolChangeRetractionDistance,12
;   toolChangeExtraRestartDistance,-0.5
;   toolChangeRetractionSpeed,600
;   externalThinWallType,0
;   internalThinWallType,2
;   thinWallAllowedOverlapPercentage,20
;   singleExtrusionMinLength,0
;   singleExtrusionMinPrintingWidthPercentage,50
;   singleExtrusionMaxPrintingWidthPercentage,200
;   singleExtrusionEndpointExtension,0.2
;   horizontalSizeCompensation,0
G90
M83
M106 S0
M140 S75
M190 S75
M104 S245 T0
M109 S245 T0
M201 X1000 Y1000 ; slows acceleration
G28 W ; home all axes without mesh bed leveling
G1 F1000.0 ; set feed rate
G1 E-5 ; retract to avoid blobs on the bed
G80 ; run mesh bed leveling routine
G1 Y-3.0 ; prepare to prime
G1 E8 ; bring back the filament
G1 X120.0 E9.0 ; priming
G1 Y0.0 F1000.0 ; move to reverse intro line
G1 X10.0 E9.0 F1000.0 ; reverse intro line
G1 E-1.0000 F1800
G1 Z0.710 F720
; process Process1
; layer 1, Z = 0.210
G1 0.210 F10000;
T0
; tool H0.350 W0.396
; inner perimeter
M204 S1000
G1 X93.722 Y151.907 F7200
G1 Z0.210 F720
G1 E1.0000 F540
G1 X91.007 Y149.989 E0.1820 F2016
G1 X87.714 Y147.221 E0.2355
G1 X87.254 Y146.853 E0.0323
G1 X86.575 Y146.241 E0.0500
G1 X83.665 Y143.362 E0.2241
G1 X83.118 Y142.742 E0.0453
G1 X79.248 Y137.975 E0.3361
G1 X78.753 Y137.265 E0.0474
G1 X76.925 Y134.484 E0.1821
G1 X76.604 Y133.959 E0.0337
G1 X75.147 Y131.379 E0.1622
G1 X74.154 Y129.408 E0.1208
G1 X73.740 Y128.515 E0.0539
G1 X72.849 Y126.493 E0.1210
G1 X71.654 Y123.342 E0.1844
G1 X71.520 Y122.940 E0.0232
G1 X70.203 Y118.396 E0.2590
G1 X70.051 Y117.731 E0.0373
G1 X69.062 Y112.155 E0.3100
G1 X68.966 Y111.417 E0.0407
G1 X68.662 Y107.915 E0.1925
G1 X68.637 Y107.350 E0.0310
G1 X68.781 Y101.194 E0.3371
G1 X68.781 Y100.611 E0.0319
G1 X68.806 Y100.048 E0.0308
G1 X69.183 Y96.827 E0.1775
G1 X69.735 Y93.814 E0.1677
G1 X69.880 Y93.060 E0.0420
G1 X70.771 Y89.471 E0.2024
G1 X70.899 Y89.029 E0.0252
G1 X71.871 Y86.117 E0.1681
G1 X72.149 Y85.322 E0.0461
G1 X73.151 Y82.788 E0.1492
G1 X75.650 Y77.827 E0.3041
G1 X75.897 Y77.301 E0.0318
G1 X76.156 Y76.802 E0.0308
G1 X76.438 Y76.316 E0.0308
G1 X78.915 Y72.498 E0.2491
G1 X79.401 Y71.835 E0.0450
G1 X83.255 Y67.103 E0.3341
G1 X83.639 Y66.673 E0.0316
G1 X83.985 Y66.315 E0.0273
G1 X86.140 Y64.156 E0.1670
G1 X86.752 Y63.586 E0.0458
G1 X89.907 Y60.889 E0.2272
G1 X92.738 Y58.761 E0.1939
G1 X94.965 Y57.295 E0.1460
G1 X97.605 Y55.722 E0.1682
G1 X99.871 Y54.538 E0.1399
G1 X105.350 Y52.231 E0.3254
G1 X105.653 Y52.092 E0.0182
G1 X106.242 Y51.846 E0.0350
G1 X106.679 Y51.686 E0.0255
G1 X109.312 Y50.853 E0.1512
G1 X111.970 Y50.158 E0.1504
G1 X115.509 Y49.446 E0.1976
G1 X116.257 Y49.331 E0.0414
G1 X119.752 Y48.875 E0.1929
G1 X122.375 Y48.690 E0.1440
G1 X125.289 Y48.633 E0.1595
G1 X128.940 Y48.779 E0.2000
G1 X129.522 Y48.832 E0.0320
G1 X134.193 Y49.395 E0.2576
G1 X137.958 Y50.140 E0.2100
G1 X138.552 Y50.287 E0.0335
G1 X142.950 Y51.563 E0.2507
G1 X143.315 Y51.683 E0.0210
G1 X146.334 Y52.823 E0.1766
G1 X147.085 Y53.151 E0.0449
G1 X147.527 Y53.373 E0.0271
G1 X151.552 Y55.270 E0.2436
G1 X151.971 Y55.499 E0.0261
G1 X155.917 Y57.849 E0.2515
G1 X157.986 Y59.283 E0.1378
G1 X160.543 Y61.225 E0.1758
G1 X160.820 Y61.454 E0.0197
G1 X164.858 Y65.137 E0.2992
G1 X165.454 Y65.717 E0.0455
G1 X168.026 Y68.557 E0.2098
G1 X168.455 Y69.064 E0.0363
G1 X170.653 Y71.904 E0.1966
G1 X172.745 Y74.994 E0.2042
G1 X174.316 Y77.630 E0.1680
G1 X175.501 Y79.892 E0.1398
G1 X177.810 Y85.365 E0.3252
G1 X178.078 Y85.965 E0.0360
G1 X178.306 Y86.550 E0.0344
G1 X178.524 Y87.213 E0.0382
G1 X180.372 Y94.219 E0.3966
G1 X180.816 Y96.825 E0.1447
G1 X181.147 Y99.534 E0.1494
G1 X181.193 Y100.035 E0.0276
G1 X181.354 Y106.480 E0.3529
G1 X181.363 Y107.340 E0.0470
G1 X181.171 Y110.248 E0.1596
G1 X181.005 Y111.457 E0.0668
G1 X180.764 Y113.485 E0.1118
G1 X179.997 Y117.500 E0.2238
G1 X179.871 Y118.098 E0.0334
G1 X179.350 Y120.067 E0.1115
G1 X178.960 Y121.401 E0.0761
G1 X177.635 Y125.268 E0.2238
G1 X177.232 Y126.282 E0.0597
G1 X176.473 Y128.055 E0.1056
G1 X175.036 Y131.041 E0.1814
G1 X173.357 Y134.028 E0.1876
G1 X171.620 Y136.736 E0.1761
G1 X170.336 Y138.535 E0.1210
G1 X169.889 Y139.137 E0.0410
G1 X167.778 Y141.708 E0.1821
G1 X167.293 Y142.286 E0.0413
G1 X165.050 Y144.701 E0.1804
G1 X164.469 Y145.268 E0.0445
G1 X161.378 Y148.063 E0.2281
G1 X161.036 Y148.364 E0.0250
G1 X160.618 Y148.703 E0.0294
G1 X158.202 Y150.564 E0.1669
G1 X157.359 Y151.168 E0.0568
G1 X152.110 Y154.426 E0.3382
G1 X151.547 Y154.739 E0.0352
G1 X147.958 Y156.475 E0.2183
G1 X147.523 Y156.668 E0.0261
G1 X143.349 Y158.311 E0.2456
G1 X142.950 Y158.444 E0.0230
G1 X138.402 Y159.761 E0.2592
G1 X137.731 Y159.914 E0.0377
G1 X134.190 Y160.613 E0.1976
G1 X130.544 Y161.102 E0.2014
G1 X130.108 Y161.143 E0.0240
G1 X128.068 Y161.289 E0.1120
G1 X127.265 Y161.326 E0.0440
G1 X124.191 Y161.349 E0.1683
G1 X123.544 Y161.345 E0.0355
G1 X119.888 Y161.143 E0.2004
G1 X119.456 Y161.102 E0.0237
G1 X116.407 Y160.695 E0.1684
G1 X115.657 Y160.586 E0.0415
G1 X115.214 Y160.503 E0.0247
G1 X111.203 Y159.640 E0.2246
G1 X110.605 Y159.499 E0.0336
G1 X107.053 Y158.445 E0.2028
G1 X106.534 Y158.269 E0.0300
G1 X106.013 Y158.070 E0.0305
G1 X101.164 Y156.092 E0.2867
G1 X100.583 Y155.815 E0.0352
G1 X97.709 Y154.342 E0.1768
G1 X96.396 Y153.592 E0.0828
G1 X94.145 Y152.174 E0.1457
G1 X93.722 Y151.907 F2016
G1 E-1.0000 F1800
G1 Z0.710 F720
; outer perimeter
M204 S800
G1 X93.502 Y152.236 F7200
G1 Z0.210 F720
G1 E1.0000 F1800
G1 X90.765 Y150.303 E0.1835 F1512
G1 X87.463 Y147.527 E0.2361
G1 X86.997 Y147.155 E0.0327
G1 X86.303 Y146.529 E0.0512
G1 X83.377 Y143.634 E0.2253
G1 X82.816 Y142.997 E0.0464
G1 X78.932 Y138.213 E0.3374
G1 X78.425 Y137.487 E0.0485
G1 X76.591 Y134.696 E0.1828
G1 X76.263 Y134.160 E0.0344
G1 X74.798 Y131.565 E0.1631
G1 X73.797 Y129.580 E0.1217
G1 X73.379 Y128.677 E0.0545
G1 X72.483 Y126.643 E0.1217
G1 X71.281 Y123.475 E0.1854
G1 X71.142 Y123.058 E0.0241
G1 X69.819 Y118.495 E0.2600
G1 X69.663 Y117.809 E0.0385
G1 X68.671 Y112.216 E0.3110
G1 X68.572 Y111.460 E0.0417
G1 X68.266 Y107.940 E0.1934
G1 X68.240 Y107.354 E0.0321
G1 X68.385 Y101.189 E0.3375
G1 X68.385 Y100.602 E0.0322
G1 X68.411 Y100.016 E0.0321
G1 X68.792 Y96.768 E0.1790
G1 X69.346 Y93.740 E0.1685
G1 X69.493 Y92.975 E0.0427
G1 X70.388 Y89.368 E0.2034
G1 X70.521 Y88.911 E0.0261
G1 X71.496 Y85.988 E0.1687
G1 X71.778 Y85.184 E0.0467
G1 X72.789 Y82.625 E0.1506
G1 X75.294 Y77.654 E0.3047
G1 X75.542 Y77.126 E0.0319
G1 X75.808 Y76.612 E0.0317
G1 X76.100 Y76.109 E0.0319
G1 X78.589 Y72.273 E0.2503
G1 X79.087 Y71.592 E0.0462
G1 X82.954 Y66.846 E0.3351
G1 X83.348 Y66.403 E0.0325
G1 X83.703 Y66.037 E0.0279
G1 X85.865 Y63.871 E0.1675
G1 X86.489 Y63.291 E0.0466
G1 X89.659 Y60.580 E0.2283
G1 X92.510 Y58.437 E0.1952
G1 X94.755 Y56.960 E0.1471
G1 X97.412 Y55.377 E0.1693
G1 X99.702 Y54.180 E0.1414
G1 X105.191 Y51.869 E0.3260
G1 X105.493 Y51.729 E0.0183
G1 X106.097 Y51.477 E0.0358
G1 X106.551 Y51.311 E0.0264
G1 X109.202 Y50.472 E0.1522
G1 X111.881 Y49.772 E0.1516
G1 X115.440 Y49.056 E0.1987
G1 X116.201 Y48.939 E0.0422
G1 X119.712 Y48.481 E0.1938
G1 X122.357 Y48.294 E0.1452
G1 X125.293 Y48.237 E0.1607
G1 X128.966 Y48.384 E0.2012
G1 X129.563 Y48.438 E0.0329
G1 X134.256 Y49.004 E0.2587
G1 X138.043 Y49.753 E0.2114
G1 X138.655 Y49.904 E0.0345
G1 X143.068 Y51.185 E0.2515
G1 X143.448 Y51.310 E0.0219
G1 X146.483 Y52.456 E0.1776
G1 X147.254 Y52.792 E0.0460
G1 X147.700 Y53.017 E0.0274
G1 X151.732 Y54.917 E0.2440
G1 X152.167 Y55.155 E0.0272
G1 X156.132 Y57.516 E0.2526
G1 X158.218 Y58.962 E0.1390
G1 X160.789 Y60.915 E0.1767
G1 X161.080 Y61.155 E0.0207
G1 X165.129 Y64.848 E0.3000
G1 X165.739 Y65.441 E0.0466
G1 X168.324 Y68.296 E0.2108
G1 X168.762 Y68.815 E0.0372
G1 X170.974 Y71.672 E0.1978
G1 X173.079 Y74.781 E0.2055
G1 X174.662 Y77.436 E0.1692
G1 X175.860 Y79.723 E0.1413
G1 X178.173 Y85.207 E0.3258
G1 X178.443 Y85.812 E0.0363
G1 X178.678 Y86.416 E0.0355
G1 X178.904 Y87.101 E0.0395
G1 X180.759 Y94.135 E0.3982
G1 X181.208 Y96.768 E0.1462
G1 X181.540 Y99.492 E0.1502
G1 X181.588 Y100.012 E0.0286
G1 X181.750 Y106.472 E0.3538
G1 X181.760 Y107.350 E0.0481
G1 X181.565 Y110.288 E0.1612
G1 X181.398 Y111.507 E0.0673
G1 X181.155 Y113.546 E0.1124
G1 X180.385 Y117.578 E0.2247
G1 X180.257 Y118.190 E0.0342
G1 X179.732 Y120.173 E0.1123
G1 X179.337 Y121.521 E0.0769
G1 X178.006 Y125.405 E0.2248
G1 X177.598 Y126.433 E0.0605
G1 X176.833 Y128.219 E0.1064
G1 X175.387 Y131.224 E0.1825
G1 X173.697 Y134.232 E0.1889
G1 X171.948 Y136.958 E0.1773
G1 X170.656 Y138.768 E0.1218
G1 X170.202 Y139.381 E0.0417
G1 X168.083 Y141.961 E0.1827
G1 X167.590 Y142.548 E0.0420
G1 X165.334 Y144.978 E0.1815
G1 X164.740 Y145.557 E0.0454
G1 X161.642 Y148.358 E0.2286
G1 X161.291 Y148.666 E0.0256
G1 X160.863 Y149.014 E0.0302
G1 X158.438 Y150.881 E0.1676
G1 X157.579 Y151.498 E0.0579
G1 X152.310 Y154.767 E0.3394
G1 X151.730 Y155.091 E0.0364
G1 X148.125 Y156.835 E0.2192
G1 X147.676 Y157.033 E0.0269
G1 X143.484 Y158.684 E0.2466
G1 X143.068 Y158.822 E0.0240
G1 X138.501 Y160.145 E0.2602
G1 X137.813 Y160.301 E0.0386
G1 X134.254 Y161.004 E0.1986
G1 X130.589 Y161.496 E0.2024
G1 X130.140 Y161.538 E0.0247
G1 X128.090 Y161.684 E0.1125
G1 X127.275 Y161.722 E0.0447
G1 X124.192 Y161.745 E0.1688
G1 X123.532 Y161.741 E0.0362
G1 X119.858 Y161.538 E0.2014
G1 X119.411 Y161.496 E0.0246
G1 X116.353 Y161.087 E0.1689
G1 X115.592 Y160.977 E0.0421
G1 X115.135 Y160.891 E0.0254
G1 X111.115 Y160.026 E0.2251
G1 X110.504 Y159.882 E0.0344
G1 X106.933 Y158.823 E0.2039
G1 X106.400 Y158.642 E0.0308
G1 X105.867 Y158.438 E0.0312
G1 X101.003 Y156.454 E0.2876
G1 X100.408 Y156.170 E0.0361
G1 X97.521 Y154.690 E0.1776
G1 X96.192 Y153.932 E0.0837
G1 X93.925 Y152.503 E0.1467
G1 X93.502 Y152.236 F1512
G1 X91.869 Y151.083 E-1.0000 F3600
G1 Z0.710 F720
; solid layer
M204 S1000
G1 X88.524 Y147.488 F7200
G1 Z0.210 F720
G1 E1.0000 F1800
G1 X82.442 Y141.406 E0.4709 F2520
G1 X80.024 Y138.428 E0.2100
G1 X91.655 Y150.059 E0.9004
G1 X93.562 Y151.406 E0.1278
G1 X78.578 Y136.422 E1.1600
G1 X77.504 Y134.788 E0.1071
G1 X95.146 Y152.430 E1.3658
G1 X96.559 Y153.321 E0.0914
G1 X96.647 Y153.371 E0.0056
G1 X76.622 Y133.345 E1.5503
G1 X75.895 Y132.059 E0.0809
G1 X97.941 Y154.105 E1.7067
G1 X99.089 Y154.693 E0.0706
